images/logos/colorful/experteer.svg

<svg height="28" viewBox="0 0 151 28" width="151" xmlns="http://www.w3.org/2000/svg"><g fill="none" fill-rule="evenodd" transform="translate(-36 -26)"><path d="m0 0h224v80h-224z"/><path d="m161.64247 33.9415205c-1.881365 1.3099415-2.372156 2.2105263-2.453954 5.5672514 0 .4912281-.081799 2.6198831-.081799 3.8479532v4.1754386c0 .9005848.899784 1.1461989 1.63597 1.1461989h.736186c.163597 0 .245396.1637427.245396.245614v.4093567c0 .1637427-.081799.2456141-.245396.2456141h-7.52546c-.163597 0-.245396-.0818714-.245396-.2456141v-.4093567c0-.1637427.081799-.245614.245396-.245614h.245395c.817985-.0818714 2.044962-.1637427 2.044962-1.1461989v-7.2865497c0-2.2923976-.163597-6.6315789 5.3987-6.3040935zm-17.750271 6.3859649v.0818713h5.725894v-.4093567c0-2.4561404-.490791-5.0760234-3.517335-5.0760234-2.944745 0-3.599133 3.0292398-3.599133 5.4035088v.1637427 1.0643275.245614c0 3.1929824.163597 7.122807 4.417118 7.122807 2.781149 0 4.580715-1.3918129 4.826111-4.1754386 0 0 0-.1637427.163597-.1637427h.654388c.327194 0 .245395.3274854.245395.3274854-.081798.4912281-.163597 1.0643275-.327194 1.5555556-1.06338 3.1111111-3.680932 3.5204678-6.216685 3.5204678-5.071506 0-6.87189-3.8479532-6.87189-8.4327485 0-4.3391813 2.700168-7.5321638 7.199084-7.5321638 4.417118 0 6.543879 2.7836257 6.543879 6.877193 0 .4912281-.081799.6549708-.490791.6549708h-8.752438c-.163597 0-.245395-.0818714-.245395-.2456141v-.7368421c0-.1637427.081798-.245614.245395-.245614zm-16.032502 0v.0818713h5.807692v-.4093567c0-2.4561404-.490791-5.0760234-3.517335-5.0760234-2.944745 0-3.599133 3.0292398-3.599133 5.4035088v.1637427 1.0643275.245614c0 3.1929824.163597 7.122807 4.417118 7.122807 2.862947 0 4.580715-1.3918129 4.826111-4.1754386 0 0 0-.1637427.163596-.1637427h.654388c.327194 0 .245396.3274854.245396.3274854-.163597.4912281-.245396 1.0643275-.408993 1.5555556-1.06338 3.1111111-3.680931 3.5204678-6.216684 3.5204678-5.071506 0-6.871073-3.8479532-6.871073-8.4327485 0-4.3391813 2.69935-7.5321638 7.198267-7.5321638 4.417118 0 6.543878 2.7836257 6.543878 6.877193 0 .4912281-.081798.6549708-.490791.6549708h-8.752437c-.163597 0-.245396-.0818714-.245396-.2456141v-.7368421c0-.1637427.163597-.245614.245396-.245614zm-4.989708 7.6140351c.081799.0818713 0 .1637427.163597.1637427-.981582 1.3918128-2.453954 1.8011695-3.926327 1.8011695-3.271939 0-3.680932-1.6374269-3.680932-4.4210526v-13.2631579c0-.491228.408993-.9005848.899784-.9005848h1.06338c.490791 0 .899783.4093568.899783.9005848v2.0467836h3.435536c.163597 0 .245396.0818714.245396.2456141v.6549707c0 .1637427-.081799.2456141-.245396.2456141h-3.435536v10.0701754c0 1.3918129.081799 3.1929825 1.881365 3.1929825.736187 0 1.63597-.6549708 2.126761-1.2280702 0 0 .081798-.0818713.163597 0 0 .0818713.327194.4093567.408992.4912281zm-13.578548-14c2.69935.0818713 3.926327 1.3099415 3.926327 3.3567251 0 1.2280702-.327194 1.3918129-1.472373 1.3918129-1.308775 0-1.390574-.3274854-1.472372-1.2280702 0-.7368421 0-2.374269-1.390574-2.374269-1.554172 0-2.372156 1.2280702-2.372156 4.4210526v3.8479532 4.1754386c0 .9005848.899783 1.1461989 1.635969 1.1461989h.736187c.163597 0 .245395.1637427.245395.245614v.4093567c0 .1637427-.081798.2456141-.245395.2456141h-7.607259c-.163597 0-.245396-.0818714-.245396-.2456141v-.4093567c0-.1637427.081799-.245614.245396-.245614h.245395c.817985-.0818714 2.044962-.1637427 2.044962-1.1461989v-7.2865497c0-2.7017544.081799-6.4678362 5.725894-6.3040935zm-18.5682557 6.3859649v.0818713h5.8894908v-.4093567c0-2.4561404-.4907909-5.0760234-3.5173348-5.0760234-2.9447454 0-3.5991333 3.0292398-3.5991333 5.4035088v.1637427 1.0643275.245614c0 3.1929824.2453955 7.122807 4.4171181 7.122807 2.7811484 0 4.5807151-1.3918129 4.8261105-4.1754386 0 0 .0817985-.1637427.2453955-.1637427h.5725894c.2453954 0 .1635969.3274854.1635969.3274854-.0817985.4912281-.1635969 1.0643275-.3271939 1.5555556-1.0633803 3.1111111-3.6809318 3.5204678-6.2166847 3.5204678-5.071506 0-6.8710726-3.8479532-6.8710726-8.4327485 0-4.3391813 2.6175514-7.5321638 7.116468-7.5321638 4.4171181 0 6.5438787 2.7836257 6.5438787 6.877193 0 .4912281-.0817985.6549708-.4907909.6549708h-8.7524377c-.163597 0-.2453955-.0818714-.2453955-.2456141v-.7368421c0-.1637427.0817985-.245614.2453955-.245614zm-17.1776815 8.0233918c.0817985-.0818714.2453954-.245614.5725894-.5730994.0817985-.0818714.1635969-.0818714.2453954 0 0 0 .0817985.0818713.163597.1637427.4907909.491228 1.3087757.7368421 2.208559.7368421 3.8445287 0 4.0081257-4.0935673 4.0081257-7.0409357 0-2.8654971-.163597-6.7953216-3.9263272-6.7953216-2.8629469 0-3.9263272 2.2105263-3.9263272 4.748538v12.3625731c0 .9824561.9815818 1.1461988 1.7995667 1.1461988h.5725893c.163597 0 .2453955.0818713.2453955.245614v.4093568c0 .1637427-.163597.245614-.2453955.245614h-7.5254604c-.163597 0-.2453955-.0818713-.2453955-.245614v-.4093568c0-.1637427.0817985-.245614.2453955-.245614h.163597c.8179848-.0818713 2.1267605 0 2.1267605-1.1461988v-17.4385965c.0817985-.4093567.4089924-.7368421.8997833-.7368421h.9815818c.4907909 0 .8997833.4093567.8997833.9005848v1.6374269h.163597c.9815818-1.883041 2.7811484-2.4561404 4.8261105-2.4561404 4.744312 0 6.1348863 3.7660819 6.1348863 7.8596491 0 4.7485381-1.7177682 8.1052632-6.9528711 8.1052632-1.2269773 0-2.2903575-.3274854-3.1901409-1.0643275-.0817984 0-.0817984 0-.1635969-.0818713-.2453955-.1637427-.163597-.2456141-.0817985-.3274854zm-6.0530878.3274854c.163597 0 .2453955.0818713.163597.3274854v.4093567c0 .1637427-.0817985.245614-.2453954.245614h-7.2800651c-.1635969 0-.2453954-.0818713-.2453954-.245614v-.4093567c0-.1637427.163597-.2456141.2453954-.2456141h1.0633803c.2453955 0 .4907909-.1637427.4907909-.4093567 0-.3274854-.2453954-.5730994-.4089924-.8187135l-2.8629469-4.4210526-2.9447454 4.4210526c-.2453954.4093568-.3271939.6549708-.3271939.8187135 0 .3274854.2453954.4093567.4907909.4912281h1.1451787c.163597 0 .2453955.1637427.2453955.245614v.4093567c0 .1637427-.163597.2456141-.2453955.2456141h-5.7258938c-.163597 0-.2453954-.0818714-.2453954-.2456141v-.4093567c0-.1637427.0817984-.245614.2453954-.245614h.8997833c.9815818-.0818714 1.3087758-.4093568 1.9631636-1.3099416l3.7627302-5.5672514-3.5173347-5.7309942c-.4907909-.9005848-.8179849-1.0643275-1.6359697-1.0643275h-.9815818c-.163597 0-.2453954-.0818713-.2453954-.245614v-.4093567c0-.1637427.0817984-.2456141.2453954-.2456141h8.0162514c.1635969 0 .2453954.0818714.2453954.2456141v.4093567c0 .1637427-.0817985.245614-.2453954.245614h-.9815818c-.327194 0-.7361864 0-.8179849.0818714-.2453954.0818713-.2453954.3274854-.2453954.4093567 0 .1637427.1635969.3274854.2453954.4912281l2.535753 4.2573099 2.8629469-4.2573099c.0817985-.0818714.2453955-.3274854.2453955-.5730994 0-.3274854-.163597-.4912281-.4089924-.4912281h-1.3087758c-.1635969 0-.2453954-.0818713-.2453954-.245614v-.4093568c0-.1637427.0817985-.245614.2453954-.245614h5.4804984c.0817985 0 .163597.0818713.163597.245614v.4093568c0 .1637427-.163597.245614-.2453955.245614h-.4089924c-1.1451788.0818713-1.4723727.3274854-2.208559 1.3099415l-3.4363543 5.0760234 3.7635482 5.6491228c.163597.2456141.3271939.4912281.4907909.6549708.5725894.7368421 1.3087757.9005848 1.7995666.9005848zm-27.0752979-8.3508772v-.0818714h5.8894908v-.4093567c0-2.4561403-.4907909-5.0760234-3.5173348-5.0760234-2.9447454 0-3.5991333 3.0292398-3.5991333 5.4035088v.1637427 1.0643275.245614c0 3.1929825.163597 7.122807 4.4171181 7.122807 2.7811485 0 4.5807151-1.3918128 4.8261105-4.1754386 0 0 0-.1637427.163597-.1637427h.6543879c.3271939 0 .2453954.3274854.2453954.3274854-.1635969.5730994-.2453954 1.1461988-.4089924 1.6374269-1.0633803 3.1111111-3.6809317 3.5204678-6.2166847 3.5204678-5.071506 0-6.8710726-3.8479532-6.8710726-8.4327485 0-4.3391813 2.6175515-7.5321637 7.116468-7.4502924 4.4171181 0 6.5438787 2.7836257 6.5438787 6.877193 0 .4912281-.0817985.6549708-.4907909.6549708h-8.7524377c-.163597 0-.2453955-.0818714-.2453955-.2456141v-.7368421c0-.1637427.0817985-.245614.2453955-.245614z" fill="#211f20" fill-rule="nonzero"/><path d="m180.701517 32.7953216h3.926327v-.245614c0-1.4736842-.327194-3.1929825-2.372156-3.1929825-1.963164 0-2.453955 1.9649123-2.453955 3.4385965v.0818714.6549707.1637427c0 2.0467837.163597 4.5847954 3.026544 4.5847954 1.881365 0 3.108343-.9005848 3.27194-2.7017544 0 0 .081798-.0818714.163597-.0818714h.408992c.245396 0 .163597.1637427.163597.1637427-.081798.3274854-.081798.6549708-.245395.9824562-.736187 2.0467836-2.535753 2.2923976-4.253522 2.2923976-3.517334 0-4.744312-2.4561403-4.744312-5.4035088 0-2.7836257 1.799567-4.8304093 4.907909-4.8304093 3.026544 0 4.498917 1.8830409 4.498917 4.4210526 0 .2456141-.081798.4093567-.327194.4093567h-5.971289c-.081799 0-.163597-.0818713-.163597-.1637426v-.4093568c0-.0818713.081798-.1637427.163597-.1637427zm-7.607259 4.748538.163597.1637427c.163597.1637427.163597.1637427-.245396.4912281-.654387.4912281-1.472372.7368421-2.372156.7368421-2.944745 0-4.171722-2.2923976-4.171722-4.9122807 0-2.7017544 1.06338-5.2397661 4.171722-5.2397661 1.226978 0 2.453955.3274854 3.190141 1.3918129v-3.6023392c0-.3274854.245396-.5730994.57259-.5730994h.736186c.327194 0 .572589.245614.572589.5730994v.8187135 10.0701754c0 .7368421 1.226978.7368421 1.63597.7368421.081798 0 .163597.0818714.163597.1637427v.245614c0 .0818714-.081799.1637427-.163597.1637427h-3.353738c-.081798 0-.163597-.0818713-.163597-.1637427v-5.4035087c0-1.8011696-.572589-3.7660819-2.781148-3.7660819-2.453955 0-2.535753 2.8654971-2.535753 4.6666667 0 1.6374269.408992 4.1754386 2.535753 4.1754386.654388 0 1.145179-.2456141 1.554171-.4912281.245395-.2456141.408992-.3274854.490791-.2456141zm-9.488624-3.2748538c.981582.1637427 1.472373 1.5555556 1.472373 3.1111112 0 1.2280701-.327194 1.3918128-1.472373 1.3918128-1.06338 0-1.390574-.1637427-1.390574-1.3918128 0-1.5555556.327194-2.9473685 1.390574-3.1111112z" fill="#bdda44"/></g></svg>

<?xml version="1.0" encoding="UTF-8"?>
<svg width="151px" height="28px" viewBox="0 0 151 28" version="1.1" xmlns="http://www.w3.org/2000/svg" xmlns:xlink="http://www.w3.org/1999/xlink">
    <!-- Generator: Sketch 50.2 (55047) - http://www.bohemiancoding.com/sketch -->
    <title>7</title>
    <desc>Created with Sketch.</desc>
    <defs></defs>
    <g id="Desktop" stroke="none" stroke-width="1" fill="none" fill-rule="evenodd">
        <g id="logos" transform="translate(-570.000000, -209.000000)">
            <g id="7" transform="translate(534.000000, 183.000000)">
                <rect id="Rectangle-7" x="0" y="0" width="224" height="80"></rect>
                <path d="M161.64247,33.9415205 C159.761105,35.251462 159.270314,36.1520468 159.188516,39.5087719 C159.188516,40 159.106717,42.128655 159.106717,43.3567251 L159.106717,47.5321637 C159.106717,48.4327485 160.006501,48.6783626 160.742687,48.6783626 L161.478873,48.6783626 C161.64247,48.6783626 161.724269,48.8421053 161.724269,48.9239766 L161.724269,49.3333333 C161.724269,49.497076 161.64247,49.5789474 161.478873,49.5789474 L153.953413,49.5789474 C153.789816,49.5789474 153.708017,49.497076 153.708017,49.3333333 L153.708017,48.9239766 C153.708017,48.7602339 153.789816,48.6783626 153.953413,48.6783626 L154.198808,48.6783626 C155.016793,48.5964912 156.24377,48.5146199 156.24377,47.5321637 L156.24377,40.245614 C156.24377,37.9532164 156.080173,33.6140351 161.64247,33.9415205 Z M143.892199,40.3274854 L143.892199,40.4093567 L149.618093,40.4093567 L149.618093,40 C149.618093,37.5438596 149.127302,34.9239766 146.100758,34.9239766 C143.156013,34.9239766 142.501625,37.9532164 142.501625,40.3274854 L142.501625,40.4912281 L142.501625,41.5555556 L142.501625,41.8011696 C142.501625,44.994152 142.665222,48.9239766 146.918743,48.9239766 C149.699892,48.9239766 151.499458,47.5321637 151.744854,44.748538 C151.744854,44.748538 151.744854,44.5847953 151.908451,44.5847953 L152.562839,44.5847953 C152.890033,44.5847953 152.808234,44.9122807 152.808234,44.9122807 C152.726436,45.4035088 152.644637,45.9766082 152.48104,46.4678363 C151.41766,49.5789474 148.800108,49.9883041 146.264355,49.9883041 C141.192849,49.9883041 139.392465,46.1403509 139.392465,41.5555556 C139.392465,37.2163743 142.092633,34.0233918 146.591549,34.0233918 C151.008667,34.0233918 153.135428,36.8070175 153.135428,40.9005848 C153.135428,41.3918129 153.053629,41.5555556 152.644637,41.5555556 L143.892199,41.5555556 C143.728602,41.5555556 143.646804,41.4736842 143.646804,41.3099415 L143.646804,40.5730994 C143.646804,40.4093567 143.728602,40.3274854 143.892199,40.3274854 Z M127.859697,40.3274854 L127.859697,40.4093567 L133.667389,40.4093567 L133.667389,40 C133.667389,37.5438596 133.176598,34.9239766 130.150054,34.9239766 C127.205309,34.9239766 126.550921,37.9532164 126.550921,40.3274854 L126.550921,40.4912281 L126.550921,41.5555556 L126.550921,41.8011696 C126.550921,44.994152 126.714518,48.9239766 130.968039,48.9239766 C133.830986,48.9239766 135.548754,47.5321637 135.79415,44.748538 C135.79415,44.748538 135.79415,44.5847953 135.957746,44.5847953 L136.612134,44.5847953 C136.939328,44.5847953 136.85753,44.9122807 136.85753,44.9122807 C136.693933,45.4035088 136.612134,45.9766082 136.448537,46.4678363 C135.385157,49.5789474 132.767606,49.9883041 130.231853,49.9883041 C125.160347,49.9883041 123.36078,46.1403509 123.36078,41.5555556 C123.36078,37.2163743 126.06013,34.0233918 130.559047,34.0233918 C134.976165,34.0233918 137.102925,36.8070175 137.102925,40.9005848 C137.102925,41.3918129 137.021127,41.5555556 136.612134,41.5555556 L127.859697,41.5555556 C127.6961,41.5555556 127.614301,41.4736842 127.614301,41.3099415 L127.614301,40.5730994 C127.614301,40.4093567 127.777898,40.3274854 127.859697,40.3274854 Z M122.869989,47.9415205 C122.951788,48.0233918 122.869989,48.1052632 123.033586,48.1052632 C122.052004,49.497076 120.579632,49.9064327 119.107259,49.9064327 C115.83532,49.9064327 115.426327,48.2690058 115.426327,45.4853801 L115.426327,32.2222222 C115.426327,31.7309942 115.83532,31.3216374 116.326111,31.3216374 L117.389491,31.3216374 C117.880282,31.3216374 118.289274,31.7309942 118.289274,32.2222222 L118.289274,34.2690058 L121.72481,34.2690058 C121.888407,34.2690058 121.970206,34.3508772 121.970206,34.5146199 L121.970206,35.1695906 C121.970206,35.3333333 121.888407,35.4152047 121.72481,35.4152047 L118.289274,35.4152047 L118.289274,45.4853801 C118.289274,46.877193 118.371073,48.6783626 120.170639,48.6783626 C120.906826,48.6783626 121.806609,48.0233918 122.2974,47.4502924 C122.2974,47.4502924 122.379198,47.3684211 122.460997,47.4502924 C122.460997,47.5321637 122.788191,47.8596491 122.869989,47.9415205 Z M109.291441,33.9415205 C111.990791,34.0233918 113.217768,35.251462 113.217768,37.2982456 C113.217768,38.5263158 112.890574,38.6900585 111.745395,38.6900585 C110.43662,38.6900585 110.354821,38.3625731 110.273023,37.4619883 C110.273023,36.7251462 110.273023,35.0877193 108.882449,35.0877193 C107.328277,35.0877193 106.510293,36.3157895 106.510293,39.5087719 C106.510293,40 106.510293,42.128655 106.510293,43.3567251 L106.510293,47.5321637 C106.510293,48.4327485 107.410076,48.6783626 108.146262,48.6783626 L108.882449,48.6783626 C109.046046,48.6783626 109.127844,48.8421053 109.127844,48.9239766 L109.127844,49.3333333 C109.127844,49.497076 109.046046,49.5789474 108.882449,49.5789474 L101.27519,49.5789474 C101.111593,49.5789474 101.029794,49.497076 101.029794,49.3333333 L101.029794,48.9239766 C101.029794,48.7602339 101.111593,48.6783626 101.27519,48.6783626 L101.520585,48.6783626 C102.33857,48.5964912 103.565547,48.5146199 103.565547,47.5321637 L103.565547,40.245614 C103.565547,37.5438596 103.647346,33.7777778 109.291441,33.9415205 Z M90.7231853,40.3274854 L90.7231853,40.4093567 L96.6126761,40.4093567 L96.6126761,40 C96.6126761,37.5438596 96.1218852,34.9239766 93.0953413,34.9239766 C90.1505959,34.9239766 89.496208,37.9532164 89.496208,40.3274854 L89.496208,40.4912281 L89.496208,41.5555556 L89.496208,41.8011696 C89.496208,44.994152 89.7416035,48.9239766 93.9133261,48.9239766 C96.6944745,48.9239766 98.4940412,47.5321637 98.7394366,44.748538 C98.7394366,44.748538 98.8212351,44.5847953 98.9848321,44.5847953 L99.5574215,44.5847953 C99.8028169,44.5847953 99.7210184,44.9122807 99.7210184,44.9122807 C99.6392199,45.4035088 99.5574215,45.9766082 99.3938245,46.4678363 C98.3304442,49.5789474 95.7128927,49.9883041 93.1771398,49.9883041 C88.1056338,49.9883041 86.3060672,46.1403509 86.3060672,41.5555556 C86.3060672,37.2163743 88.9236186,34.0233918 93.4225352,34.0233918 C97.8396533,34.0233918 99.9664139,36.8070175 99.9664139,40.9005848 C99.9664139,41.3918129 99.8846154,41.5555556 99.475623,41.5555556 L90.7231853,41.5555556 C90.5595883,41.5555556 90.4777898,41.4736842 90.4777898,41.3099415 L90.4777898,40.5730994 C90.4777898,40.4093567 90.5595883,40.3274854 90.7231853,40.3274854 Z M73.5455038,48.3508772 C73.6273023,48.2690058 73.7908992,48.1052632 74.1180932,47.7777778 C74.1998917,47.6959064 74.2816901,47.6959064 74.3634886,47.7777778 C74.3634886,47.7777778 74.4452871,47.8596491 74.5270856,47.9415205 C75.0178765,48.4327485 75.8358613,48.6783626 76.7356446,48.6783626 C80.5801733,48.6783626 80.7437703,44.5847953 80.7437703,41.6374269 C80.7437703,38.7719298 80.5801733,34.8421053 76.8174431,34.8421053 C73.9544962,34.8421053 72.8911159,37.0526316 72.8911159,39.5906433 L72.8911159,51.9532164 C72.8911159,52.9356725 73.8726977,53.0994152 74.6906826,53.0994152 L75.2632719,53.0994152 C75.4268689,53.0994152 75.5086674,53.1812865 75.5086674,53.3450292 L75.5086674,53.754386 C75.5086674,53.9181287 75.3450704,54 75.2632719,54 L67.7378115,54 C67.5742145,54 67.492416,53.9181287 67.492416,53.754386 L67.492416,53.3450292 C67.492416,53.1812865 67.5742145,53.0994152 67.7378115,53.0994152 L67.9014085,53.0994152 C68.7193933,53.0175439 70.028169,53.0994152 70.028169,51.9532164 L70.028169,34.5146199 C70.1099675,34.1052632 70.4371614,33.7777778 70.9279523,33.7777778 L71.9095341,33.7777778 C72.400325,33.7777778 72.8093174,34.1871345 72.8093174,34.6783626 L72.8093174,36.3157895 L72.9729144,36.3157895 C73.9544962,34.4327485 75.7540628,33.8596491 77.7990249,33.8596491 C82.5433369,33.8596491 83.9339112,37.625731 83.9339112,41.7192982 C83.9339112,46.4678363 82.216143,49.8245614 76.9810401,49.8245614 C75.7540628,49.8245614 74.6906826,49.497076 73.7908992,48.7602339 C73.7091008,48.7602339 73.7091008,48.7602339 73.6273023,48.6783626 C73.3819068,48.5146199 73.4637053,48.4327485 73.5455038,48.3508772 Z M67.492416,48.6783626 C67.656013,48.6783626 67.7378115,48.7602339 67.656013,49.005848 L67.656013,49.4152047 C67.656013,49.5789474 67.5742145,49.6608187 67.4106176,49.6608187 L60.1305525,49.6608187 C59.9669556,49.6608187 59.8851571,49.5789474 59.8851571,49.4152047 L59.8851571,49.005848 C59.8851571,48.8421053 60.0487541,48.7602339 60.1305525,48.7602339 L61.1939328,48.7602339 C61.4393283,48.7602339 61.6847237,48.5964912 61.6847237,48.3508772 C61.6847237,48.0233918 61.4393283,47.7777778 61.2757313,47.5321637 L58.4127844,43.1111111 L55.468039,47.5321637 C55.2226436,47.9415205 55.1408451,48.1871345 55.1408451,48.3508772 C55.1408451,48.6783626 55.3862405,48.7602339 55.631636,48.8421053 L56.7768147,48.8421053 C56.9404117,48.8421053 57.0222102,49.005848 57.0222102,49.0877193 L57.0222102,49.497076 C57.0222102,49.6608187 56.8586132,49.7426901 56.7768147,49.7426901 L51.0509209,49.7426901 C50.8873239,49.7426901 50.8055255,49.6608187 50.8055255,49.497076 L50.8055255,49.0877193 C50.8055255,48.9239766 50.8873239,48.8421053 51.0509209,48.8421053 L51.9507042,48.8421053 C52.932286,48.7602339 53.25948,48.4327485 53.9138678,47.5321637 L57.676598,41.9649123 L54.1592633,36.2339181 C53.6684724,35.3333333 53.3412784,35.1695906 52.5232936,35.1695906 L51.5417118,35.1695906 C51.3781148,35.1695906 51.2963164,35.0877193 51.2963164,34.9239766 L51.2963164,34.5146199 C51.2963164,34.3508772 51.3781148,34.2690058 51.5417118,34.2690058 L59.5579632,34.2690058 C59.7215601,34.2690058 59.8033586,34.3508772 59.8033586,34.5146199 L59.8033586,34.9239766 C59.8033586,35.0877193 59.7215601,35.1695906 59.5579632,35.1695906 L58.5763814,35.1695906 C58.2491874,35.1695906 57.840195,35.1695906 57.7583965,35.251462 C57.5130011,35.3333333 57.5130011,35.5789474 57.5130011,35.6608187 C57.5130011,35.8245614 57.676598,35.9883041 57.7583965,36.1520468 L60.2941495,40.4093567 L63.1570964,36.1520468 C63.2388949,36.0701754 63.4024919,35.8245614 63.4024919,35.5789474 C63.4024919,35.251462 63.2388949,35.0877193 62.9934995,35.0877193 L61.6847237,35.0877193 C61.5211268,35.0877193 61.4393283,35.005848 61.4393283,34.8421053 L61.4393283,34.4327485 C61.4393283,34.2690058 61.5211268,34.1871345 61.6847237,34.1871345 L67.1652221,34.1871345 C67.2470206,34.1871345 67.3288191,34.2690058 67.3288191,34.4327485 L67.3288191,34.8421053 C67.3288191,35.005848 67.1652221,35.0877193 67.0834236,35.0877193 L66.6744312,35.0877193 C65.5292524,35.1695906 65.2020585,35.4152047 64.4658722,36.3976608 L61.0295179,41.4736842 L64.7930661,47.122807 C64.9566631,47.3684211 65.12026,47.6140351 65.283857,47.7777778 C65.8564464,48.5146199 66.5926327,48.6783626 67.0834236,48.6783626 L67.492416,48.6783626 Z M40.4171181,40.3274854 L40.4171181,40.245614 L46.3066089,40.245614 L46.3066089,39.8362573 C46.3066089,37.380117 45.815818,34.7602339 42.7892741,34.7602339 C39.8445287,34.7602339 39.1901408,37.7894737 39.1901408,40.1637427 L39.1901408,40.3274854 L39.1901408,41.3918129 L39.1901408,41.6374269 C39.1901408,44.8304094 39.3537378,48.7602339 43.6072589,48.7602339 C46.3884074,48.7602339 48.187974,47.3684211 48.4333694,44.5847953 C48.4333694,44.5847953 48.4333694,44.4210526 48.5969664,44.4210526 L49.2513543,44.4210526 C49.5785482,44.4210526 49.4967497,44.748538 49.4967497,44.748538 C49.3331528,45.3216374 49.2513543,45.8947368 49.0877573,46.3859649 C48.024377,49.497076 45.4068256,49.9064327 42.8710726,49.9064327 C37.7995666,49.9064327 36,46.0584795 36,41.4736842 C36,37.1345029 38.6175515,33.9415205 43.116468,34.0233918 C47.5335861,34.0233918 49.6603467,36.8070175 49.6603467,40.9005848 C49.6603467,41.3918129 49.5785482,41.5555556 49.1695558,41.5555556 L40.4171181,41.5555556 C40.2535211,41.5555556 40.1717226,41.4736842 40.1717226,41.3099415 L40.1717226,40.5730994 C40.1717226,40.4093567 40.2535211,40.3274854 40.4171181,40.3274854 Z" id="experteer" fill="#211F20" fill-rule="nonzero"></path>
                <path d="M180.701517,32.7953216 L184.627844,32.7953216 L184.627844,32.5497076 C184.627844,31.0760234 184.30065,29.3567251 182.255688,29.3567251 C180.292524,29.3567251 179.801733,31.3216374 179.801733,32.7953216 L179.801733,32.877193 L179.801733,33.5321637 L179.801733,33.6959064 C179.801733,35.7426901 179.96533,38.2807018 182.828277,38.2807018 C184.709642,38.2807018 185.93662,37.380117 186.100217,35.5789474 C186.100217,35.5789474 186.182015,35.497076 186.263814,35.497076 L186.672806,35.497076 C186.918202,35.497076 186.836403,35.6608187 186.836403,35.6608187 C186.754605,35.9883041 186.754605,36.3157895 186.591008,36.6432749 C185.854821,38.6900585 184.055255,38.9356725 182.337486,38.9356725 C178.820152,38.9356725 177.593174,36.4795322 177.593174,33.5321637 C177.593174,30.748538 179.392741,28.7017544 182.501083,28.7017544 C185.527627,28.7017544 187,30.5847953 187,33.122807 C187,33.3684211 186.918202,33.5321637 186.672806,33.5321637 L180.701517,33.5321637 C180.619718,33.5321637 180.53792,33.4502924 180.53792,33.3684211 L180.53792,32.9590643 C180.53792,32.877193 180.619718,32.7953216 180.701517,32.7953216 Z M173.094258,37.5438596 L173.257855,37.7076023 C173.421452,37.871345 173.421452,37.871345 173.012459,38.1988304 C172.358072,38.6900585 171.540087,38.9356725 170.640303,38.9356725 C167.695558,38.9356725 166.468581,36.6432749 166.468581,34.0233918 C166.468581,31.3216374 167.531961,28.7836257 170.640303,28.7836257 C171.867281,28.7836257 173.094258,29.1111111 173.830444,30.1754386 L173.830444,26.5730994 C173.830444,26.245614 174.07584,26 174.403034,26 L175.13922,26 C175.466414,26 175.711809,26.245614 175.711809,26.5730994 L175.711809,27.3918129 L175.711809,37.4619883 C175.711809,38.1988304 176.938787,38.1988304 177.347779,38.1988304 C177.429577,38.1988304 177.511376,38.2807018 177.511376,38.3625731 L177.511376,38.6081871 C177.511376,38.6900585 177.429577,38.7719298 177.347779,38.7719298 L173.994041,38.7719298 C173.912243,38.7719298 173.830444,38.6900585 173.830444,38.6081871 L173.830444,33.2046784 C173.830444,31.4035088 173.257855,29.4385965 171.049296,29.4385965 C168.595341,29.4385965 168.513543,32.3040936 168.513543,34.1052632 C168.513543,35.7426901 168.922535,38.2807018 171.049296,38.2807018 C171.703684,38.2807018 172.194475,38.0350877 172.603467,37.7894737 C172.848862,37.5438596 173.012459,37.4619883 173.094258,37.5438596 Z M163.605634,34.2690058 C164.587216,34.4327485 165.078007,35.8245614 165.078007,37.380117 C165.078007,38.6081871 164.750813,38.7719298 163.605634,38.7719298 C162.542254,38.7719298 162.21506,38.6081871 162.21506,37.380117 C162.21506,35.8245614 162.542254,34.4327485 163.605634,34.2690058 Z" id="Combined-Shape" fill="#BDDA44"></path>
            </g>
        </g>
    </g>
</svg>
